X: 430
T: Fangyan shang liaogege hao xinjiao
L: 1/8
M: 2/4
K: G
B de2 [I:setbarnb 1]| 
d BA2 | 
B d e d | 
BA3 | 
B de2 | 
dB2d | 
B d G D | 
E4 |]

@@@ Tune index: 9304
